!!!!SEGMENT: pl-kk--kk-i-395--001-010_raszek-waclaw--missa-toni-c-sanctus.krn
!!!cenid: 17xx:2546
!!!COM: Raszek, Wacław
!!!COM-rismID: pe30020314
!!!CDT: <1848->1848
!!!CNT:
!!!OPR: Missa Toni C
!!!OTL: Sanctus
!!!OMV: 010
!!!PDT: 1789
!!!AGN: Sacred; Mass
!!!YEC: Copyright 2022 Narodowy Instytut Fryderyka Chopina (https://polishscores.org)
!!!YEM: License CC-BY-4.0 (https://creativecommons.org/licenses/by/4.0)
!!!SMS-siglum: PL-Kk
!!!SMS-shelfmark: Kk.I.395
!!!SMS-variant: PL-Kk.I.395:vl1:28, vl2:45
!!!SMS-altvar: PL-Kk.I.395:vl1:37, vl2:53
!!!SMS-shelfwork: 001-010 M
!!!NIFC-rismSourceID: 1001142055
!!!NIFC-rismChildID: 1001142055
!!!NIFC-islandoraID:
!!!URL-pdf-islandora: https://repozytorium.nifc.pl/islandora/object/pl-kk%3A7416/datastream/PDF/view
!!!URL-scan: https://polish.musicsources.pl/pl/lokalizacje/galeria/rekopisy/6005-missa/1 @EN{Scan on Polish Music Sources Website} @PL{Skany w portalu Dziedzictwo Muzyki Polskiej w otwartym dostępie}
!!!IIIF:
!!!ONB-nifc: UWAGA: Części Mszy: 1. Kyrie, 2. Gloria, 3. Laudamus, 4. Qui tollis, 5. Quoniam, 6. Cum Sancto Spiritu, 7, Credo, 8. Et incarnatus, 9. Et resurrexit, 10. Sanctus, 11. Pleni sunt, 12. Benedictus, 13. Agnus Dei, 14. Dona nobis. Uwaga: Vn na podstawie Violino 1mo s. 22-30 i Violino 2do s. 41-47. Drugie odpisy: Violino Primo s. 31-40 s. i Secondo s. 48-55. Proszę uzupełnić pola SMS wg wzoru w wątku #53.
!!!OMD: Adagio
!!!AIN: 1 alto 1 bass 1 canto 2 clrno 2 cor 2 oboe 1 organ 1 tenor 1 timpa 1 viola 1 viole 2 violn
!!!key: C
**kern	**fba	**dynam	**kern	**dynam	**kern	**dynam	**kern	**dynam	**kern	**dynam	**kern	**text	**dynam	**kern	**text	**dynam	**kern	**text	**dynam	**kern	**text	**dynam	**kern	**kern	**dynam	**kern	**dynam	**kern	**dynam	**kern	**dynam	**kern	**dynam	**kern	**dynam
*part16	*part16	*part16	*part15	*part15	*part14	*part14	*part13	*part13	*part12	*part12	*part11	*part11	*part11	*part10	*part10	*part10	*part9	*part9	*part9	*part8	*part8	*part8	*part7	*part6	*part6	*part5	*part5	*part4	*part4	*part3	*part3	*part2	*part2	*part1	*part1
*staff16	*staff16	*	*staff15	*	*staff14	*	*staff13	*	*staff12	*	*staff11	*staff11	*	*staff10	*staff10	*	*staff9	*staff9	*	*staff8	*staff8	*	*staff7	*staff6	*	*staff5	*	*staff4	*	*staff3	*	*staff2	*	*staff1	*
*I"Organo	*	*	*I"Violone	*	*I"Viola di Alto	*	*I"Violino 2do	*	*I"Violino 1mo	*	*I"Basso	*	*	*I"Tenore	*	*	*I"Alto	*	*	*I"Canto	*	*	*I"Tympano in C	*I"Clarino 2do in C	*	*I"Clarino 1mo in C	*	*I"Corno in C	*	*I"Cornu 1mo in C	*	*I"Oboe 2do	*	*I"Oboe 1mo	*
*I'org	*	*	*I'vlne	*	*I'a-vla	*	*I'vl II	*	*I'vl I	*	*I'B	*	*	*I'T	*	*	*I'A	*	*	*I'S	*	*	*I'timp	*I'clno II	*	*I'clno I	*	*I'cor II in C	*	*I'cor I in C	*	*I'ob II	*	*I'ob I	*
*Iorgan	*	*	*Iviole	*	*Iviola	*	*Ivioln	*	*Ivioln	*	*Ibass	*	*	*Itenor	*	*	*Ialto	*	*	*Icanto	*	*	*Itimpa	*Iclrno	*	*Iclrno	*	*Icor	*	*Icor	*	*Ioboe	*	*Ioboe	*
*ICklav	*	*	*ICstr	*	*ICstr	*	*ICstr	*	*ICstr	*	*ICvox	*	*	*ICvox	*	*	*ICvox	*	*	*ICvox	*	*	*ICidio	*ICbras	*	*ICbras	*	*ICbras	*	*ICbras	*	*ICww	*	*ICww	*
*clefF4	*	*	*clefF4	*	*clefC3	*	*clefG2	*	*clefG2	*	*clefF4	*	*	*clefC4	*	*	*clefC3	*	*	*clefC1	*	*	*clefF4	*clefG2	*	*clefG2	*	*clefG2	*	*clefG2	*	*clefG2	*	*clefG2	*
*	*	*	*	*	*	*	*	*	*	*	*	*	*	*	*	*	*	*	*	*	*	*	*	*	*	*	*	*Trd0c0	*	*Trd0c0	*	*	*	*	*
*k[]	*	*	*k[]	*	*k[]	*	*k[]	*	*k[]	*	*k[]	*	*	*k[]	*	*	*k[]	*	*	*k[]	*	*	*k[]	*k[]	*	*k[]	*	*k[]	*	*k[]	*	*k[]	*	*k[]	*
*C:	*	*	*C:	*	*C:	*	*C:	*	*C:	*	*C:	*	*	*C:	*	*	*C:	*	*	*C:	*	*	*C:	*C:	*	*C:	*	*C:	*	*C:	*	*C:	*	*C:	*
*M3/4	*	*	*M3/4	*	*M3/4	*	*M3/4	*	*M3/4	*	*M3/4	*	*	*M3/4	*	*	*M3/4	*	*	*M3/4	*	*	*M3/4	*M3/4	*	*M3/4	*	*M3/4	*	*M3/4	*	*M3/4	*	*M3/4	*
=1	=1	=1	=1	=1	=1	=1	=1	=1	=1	=1	=1	=1	=1	=1	=1	=1	=1	=1	=1	=1	=1	=1	=1	=1	=1	=1	=1	=1	=1	=1	=1	=1	=1	=1	=1
*tremolo	*	*	*tremolo	*	*tremolo	*	*tremolo	*	*tremolo	*	*	*	*	*	*	*	*	*	*	*	*	*	*	*	*	*	*	*	*	*	*	*	*	*	*
*	*	*	*	*	*2\right	*	*	*	*2\right	*	*	*	*	*2\right	*	*	*2\right	*	*	*2\right	*	*	*	*	*	*2\right	*	*2\right	*	*2\right	*	*	*	*2\right	*
!!LO:TX:a:t=P:problem=all\right
!	!	!	!	!	!LO:TX:a:t=Tutti	!	!LO:TX:a:t=T.	!	!	!	!	!	!	!LO:TX:a:t=T.	!	!	!LO:TX:a:t=Tutti	!	!	!LO:TX:a:t=Tutti	!	!	!	!	!	!	!	!	!	!	!	!	!	!	!
!LO:TX:a:t=Adagio	!	!	!LO:TX:a:t=Ada(gio)	!	!LO:TX:a:t=Ada(gio)	!	!LO:TX:a:t=Ad(agio)	!	!LO:TX:a:t=Adagio	!	!LO:TX:a:t=Ada(gio)	!	!	!LO:TX:a:t=Adagio	!	!	!LO:TX:a:t=Adagio	!	!	!	!	!	!	!	!	!	!	!	!	!	!	!LO:TX:a:t=Ada(gio)	!	!	!
!LO:TX:a:t=Tutti	!	!	!	!LO:DY:a	!	!	!	!	!	!LO:DY:a	!	!	!LO:DY:a	!	!	!	!	!	!	!LO:TX:a:t=Ada(gio)	!	!	!LO:TX:a:t=Ada(gio)	!LO:TX:a:t=Ada(gio)	!LO:DY:a	!LO:TX:a:t=Adagio	!LO:DY:a	!LO:TX:a:t=Adagio	!	!LO:TX:a:t=Adagio	!LO:DY:a:t=ff.	!	!LO:DY:a	!LO:TX:a:t=Ada(gio)	!LO:DY:a
8C/L	.	.	8C/L	ff	8g\L	.	8e/L	.	8cc\L	ff	2C/	San-	ff	2e\	San-	.	2g\	San-	.	2cc\	San-	.	4Ra/	2.e/	ff	2.cc\	f	2cc\	.	2ee\	ff	2.e/	f	2.cc\	f
8C/	.	.	8C/	.	8g\	.	8e/	.	8cc\	.	.	.	.	.	.	.	.	.	.	.	.	.	.	.	.	.	.	.	.	.	.	.	.	.	.
8C/	.	.	8C/	.	8g\	.	8e/	.	8cc\	.	.	.	.	.	.	.	.	.	.	.	.	.	4r	.	.	.	.	.	.	.	.	.	.	.	.
8C/	.	.	8C/	.	8g\	.	8e/	.	8cc\	.	.	.	.	.	.	.	.	.	.	.	.	.	.	.	.	.	.	.	.	.	.	.	.	.	.
8C/	.	.	8C/	.	8g\	.	8e/	.	8cc\	.	4C/	-ctus	.	4e\	-ctus	.	4g\	-ctus	.	4cc\	-ctus	.	4r	.	.	.	.	4cc\	.	4ee\	.	.	.	.	.
8C/J	.	.	8C/J	.	8g\J	.	8e/J	.	8cc\J	.	.	.	.	.	.	.	.	.	.	.	.	.	.	.	.	.	.	.	.	.	.	.	.	.	.
=2	=2	=2	=2	=2	=2	=2	=2	=2	=2	=2	=2	=2	=2	=2	=2	=2	=2	=2	=2	=2	=2	=2	=2	=2	=2	=2	=2	=2	=2	=2	=2	=2	=2	=2	=2
*2\right	*	*	*2\right	*	*	*	*	*	*	*	*	*ij	*	*	*ij	*	*	*ij	*	*	*ij	*	*	*	*	*	*	*	*	*	*	*	*	*	*
8D\L	76	.	8D\L	.	8g\L	.	8f/L	.	8cc\L	.	4D\	San-	.	8e\L	San-	.	4g\	San-	.	8cc\L	San-	.	4Re/	2.g/	.	2.g/	.	2dd\	.	2ff\	.	4f/	.	8cc\L	.
8D\	.	.	8D\	.	8g\	.	8f/	.	8b\J	.	.	.	.	8f\J	.	.	.	.	.	8b\J	.	.	.	.	.	.	.	.	.	.	.	.	.	8b\J	.
*	*	*	*	*	*	*	*	*	*	*	*2\right	*	*	*	*	*	*	*	*	*	*	*	*	*	*	*	*	*	*	*	*	*	*	*	*
8D\	.	.	8D\	.	8g\	.	8f/	.	8b\L	.	2D\	-ctus	.	2f\	-ctus	.	2g\	-ctus	.	2b\	-ctus	.	4r	.	.	.	.	.	.	.	.	2f/	.	2b\	.
*	*	*	*	*	*	*	*	*	*	*	*	*Xij	*	*	*Xij	*	*	*Xij	*	*	*Xij	*	*	*	*	*	*	*	*	*	*	*	*	*	*
8D\	.	.	8D\	.	8g\	.	8f/	.	8b\	.	.	.	.	.	.	.	.	.	.	.	.	.	.	.	.	.	.	.	.	.	.	.	.	.	.
8D\	.	.	8D\	.	8g\	.	8f/	.	8b\	.	.	.	.	.	.	.	.	.	.	.	.	.	4r	.	.	.	.	4dd\	.	4ff\	.	.	.	.	.
8D\J	.	.	8D\J	.	8g\J	.	8f/J	.	8b\J	.	.	.	.	.	.	.	.	.	.	.	.	.	.	.	.	.	.	.	.	.	.	.	.	.	.
=3	=3	=3	=3	=3	=3	=3	=3	=3	=3	=3	=3	=3	=3	=3	=3	=3	=3	=3	=3	=3	=3	=3	=3	=3	=3	=3	=3	=3	=3	=3	=3	=3	=3	=3	=3
*	*	*	*	*	*	*	*2\right	*	*	*	*	*	*	*	*	*	*	*	*	*	*	*	*	*	*	*	*	*	*	*	*	*2\right	*	*	*
8G\L	7	.	8G\L	.	8d\L	.	8b\L	.	8ff\L	.	2.G\	San-	.	2.d\	Sa-	.	2.g\	San-	.	2.ff\	San-	.	4Re/	2.g/	.	2.dd\	.	2.g/	.	2.dd\	.	2.dd\	.	2.ff\	.
8G\	.	.	8G\	.	8d\	.	8b\	.	8ff\	.	.	.	.	.	.	.	.	.	.	.	.	.	.	.	.	.	.	.	.	.	.	.	.	.	.
8G\	.	.	8G\	.	8d\	.	8b\	.	8ff\	.	.	.	.	.	.	.	.	.	.	.	.	.	4Re/	.	.	.	.	.	.	.	.	.	.	.	.
8G\	.	.	8G\	.	8d\	.	8b\	.	8ff\	.	.	.	.	.	.	.	.	.	.	.	.	.	.	.	.	.	.	.	.	.	.	.	.	.	.
8G\	.	.	8G\	.	8d\	.	8b\	.	8ff\	.	.	.	.	.	.	.	.	.	.	.	.	.	4Re/	.	.	.	.	.	.	.	.	.	.	.	.
8G\J	.	.	8G\J	.	8d\J	.	8b\J	.	8ff\J	.	.	.	.	.	.	.	.	.	.	.	.	.	.	.	.	.	.	.	.	.	.	.	.	.	.
=4	=4	=4	=4	=4	=4	=4	=4	=4	=4	=4	=4	=4	=4	=4	=4	=4	=4	=4	=4	=4	=4	=4	=4	=4	=4	=4	=4	=4	=4	=4	=4	=4	=4	=4	=4
8C/L	.	.	8c\L	.	8d\L	.	8b\L	.	8ff\L	.	4c\	.	.	8d\L	.	.	4g\	.	.	8ff\L	.	.	4Ra/	8g/L	.	8dd\L	.	8g/L	.	8dd\L	.	8dd\L	.	8ff\L	.
8C/	.	.	8c\	.	8c\J	.	8cc\J	.	8ee\J	.	.	.	.	8c\J	.	.	.	.	.	8ee\J	.	.	.	8e/J	.	8cc\J	.	8cc/J	.	8ee\J	.	8cc\J	.	8ee\J	.
8C/	.	.	8c\	.	8c\L	.	8g/L	.	8ee\L	.	2C/	-ctus	.	2c\	-nctus	.	2g\	-ctus	.	2ee\	-ctus	.	4Ra/	2e/	.	2cc\	.	2cc\	.	2ee\	.	2cc\	.	2ff\	.
8C/	.	.	8c\J	.	8c\	.	8g/	.	8ee\	.	.	.	.	.	.	.	.	.	.	.	.	.	.	.	.	.	.	.	.	.	.	.	.	.	.
*	*	*	*Xtremolo	*	*	*	*	*	*	*	*	*	*	*	*	*	*	*	*	*	*	*	*	*	*	*	*	*	*	*	*	*	*	*	*
8C/	.	.	8C/L	.	8c\	.	8g/	.	8ee\	.	.	.	.	.	.	.	.	.	.	.	.	.	4r	.	.	.	.	.	.	.	.	.	.	.	.
8C/J	.	.	8C/J	.	8c\J	.	8g/J	.	8ee\J	.	.	.	.	.	.	.	.	.	.	.	.	.	.	.	.	.	.	.	.	.	.	.	.	.	.
=5	=5	=5	=5	=5	=5	=5	=5	=5	=5	=5	=5	=5	=5	=5	=5	=5	=5	=5	=5	=5	=5	=5	=5	=5	=5	=5	=5	=5	=5	=5	=5	=5	=5	=5	=5
*	*	*	*tremolo	*	*	*	*	*	*	*	*	*	*	*	*	*	*	*	*	*	*	*	*tremolo	*tremolo	*	*tremolo	*	*	*	*	*	*	*	*	*
8E\L	6	.	8E\L	.	8e\L	.	8cc\L	.	8gg\L	.	4.E\	Do-	.	4.c\	Do-	.	2g\	San-	.	4.cc\	Do-	.	8Ra/L	8c/L	.	8cc\L	.	2.c/	.	2.cc\	.	2.cc\	.	2.gg\	.
8E\	.	.	8E\	.	8e\	.	8cc\	.	8gg\	.	.	.	.	.	.	.	.	.	.	.	.	.	8Ra/	8c/	.	8cc\	.	.	.	.	.	.	.	.	.
8E\	.	.	8E\	.	8e\	.	8cc\	.	8gg\	.	.	.	.	.	.	.	.	.	.	.	.	.	8Ra/	8c/	.	8cc\	.	.	.	.	.	.	.	.	.
8E\	.	.	8E\	.	8e\	.	8cc\	.	8gg\	.	8E\	-mi-	.	8c\	-mi-	.	.	.	.	8cc\	-mi-	.	8Ra/	8c/	.	8cc\	.	.	.	.	.	.	.	.	.
8E\	.	.	8E\	.	8e\	.	8cc\	.	8gg\	.	4E\	-nus	.	4c\	-nus	.	4g\	-ctus	.	4cc\	-nus	.	8Ra/	8c/	.	8cc\	.	.	.	.	.	.	.	.	.
8E\J	.	.	8E\J	.	8e\J	.	8cc\J	.	8gg\J	.	.	.	.	.	.	.	.	.	.	.	.	.	8Ra/J	8c/J	.	8cc\J	.	.	.	.	.	.	.	.	.
=6	=6	=6	=6	=6	=6	=6	=6	=6	=6	=6	=6	=6	=6	=6	=6	=6	=6	=6	=6	=6	=6	=6	=6	=6	=6	=6	=6	=6	=6	=6	=6	=6	=6	=6	=6
8F\L	.	.	8F\L	.	8f\L	.	8cc\L	.	8aa\L	.	2F\	De-	.	2c\	De-	.	4.a\	Do-	.	2cc\	De-	.	8Ra/L	8c/L	.	8cc\L	.	2.c/	.	2.cc\	.	2.cc\	.	2.aa\	.
8F\	.	.	8F\	.	8f\	.	8cc\	.	8aa\	.	.	.	.	.	.	.	.	.	.	.	.	.	8Ra/	8c/	.	8cc\	.	.	.	.	.	.	.	.	.
8F\	.	.	8F\	.	8f\	.	8cc\	.	8aa\	.	.	.	.	.	.	.	.	.	.	.	.	.	8Ra/	8c/	.	8cc\	.	.	.	.	.	.	.	.	.
8F\	.	.	8F\	.	8f\	.	8cc\	.	8aa\	.	.	.	.	.	.	.	8a\	-mi-	.	.	.	.	8Ra/	8c/	.	8cc\	.	.	.	.	.	.	.	.	.
8F\	.	.	8F\	.	8f\	.	8cc\	.	8aa\	.	4F\	-us	.	4c\	-us	.	4a\	-nus	.	4cc\	-us	.	8Ra/	8c/	.	8cc\	.	.	.	.	.	.	.	.	.
8F\J	.	.	8F\J	.	8f\J	.	8cc\J	.	8aa\J	.	.	.	.	.	.	.	.	.	.	.	.	.	8Ra/J	8c/J	.	8cc\J	.	.	.	.	.	.	.	.	.
=7	=7	=7	=7	=7	=7	=7	=7	=7	=7	=7	=7	=7	=7	=7	=7	=7	=7	=7	=7	=7	=7	=7	=7	=7	=7	=7	=7	=7	=7	=7	=7	=7	=7	=7	=7
8E\L	x 6	.	8E\L	.	8g\L	.	8cc\L	.	8bb-X\L	.	2E\	Sa-	.	2B-X\	Sa-	.	2.g\	De-	.	2cc\	Sa-	.	8Ra/L	8c/L	.	8cc\L	.	2.c/	.	2.cc\	.	2.cc\	.	2.bb-X\	.
8E\	6 3	.	8E\	.	8g\	.	8cc\	.	8bb-\	.	.	.	.	.	.	.	.	.	.	.	.	.	8Ra/	8c/	.	8cc\	.	.	.	.	.	.	.	.	.
8E\	.	.	8E\	.	8g\	.	8cc\	.	8bb-\	.	.	.	.	.	.	.	.	.	.	.	.	.	8Ra/	8c/	.	8cc\	.	.	.	.	.	.	.	.	.
8E\	.	.	8E\	.	8g\	.	8cc\	.	8bb-\	.	.	.	.	.	.	.	.	.	.	.	.	.	8Ra/	8c/	.	8cc\	.	.	.	.	.	.	.	.	.
8E\	.	.	8E\	.	8g\	.	8cc\	.	8bb-\	.	4E\	-ba-	.	4B-\	-ba-	.	.	.	.	4cc\	-ba-	.	8Ra/	8c/	.	8cc\	.	.	.	.	.	.	.	.	.
8E\J	.	.	8E\J	.	8g\J	.	8cc\J	.	8bb-\J	.	.	.	.	.	.	.	.	.	.	.	.	.	8Ra/J	8c/J	.	8cc\J	.	.	.	.	.	.	.	.	.
*Xtremolo	*	*	*	*	*Xtremolo	*	*Xtremolo	*	*Xtremolo	*	*	*	*	*	*	*	*	*	*	*	*	*	*Xtremolo	*Xtremolo	*	*Xtremolo	*	*	*	*	*	*	*	*	*
=8	=8	=8	=8	=8	=8	=8	=8	=8	=8	=8	=8	=8	=8	=8	=8	=8	=8	=8	=8	=8	=8	=8	=8	=8	=8	=8	=8	=8	=8	=8	=8	=8	=8	=8	=8
4E\	_	.	4E\	.	4g\	.	4cc\	.	8bb-X\L	.	4E\	-oth	.	4B\	-oth	.	4g\	-us	.	4cc\	-oth	.	4Ra/	4c/	.	4cc\	.	4c/	.	4cc\	.	4gg\	.	4bb-X\	.
!	!	!	!	!	!	!	!	!	!	!LO:DY:a:t=p&colon;	!	!	!	!	!	!	!	!	!	!	!	!	!	!	!	!	!	!	!	!	!	!	!	!	!
.	.	.	.	.	.	.	.	.	8gg\	p	.	.	.	.	.	.	.	.	.	.	.	.	.	.	.	.	.	.	.	.	.	.	.	.	.
4r	x	.	4r	.	4r	.	4r	.	8ee\	.	4r	.	.	4r	.	.	4r	.	.	4r	.	.	4r	4r	.	4r	.	4r	.	4r	.	4r	.	4r	.
.	.	.	.	.	.	.	.	.	8cc\J	.	.	.	.	.	.	.	.	.	.	.	.	.	.	.	.	.	.	.	.	.	.	.	.	.	.
4r	.	.	4r	.	4r	.	4r	.	8b-X/L	.	4r	.	.	4r	.	.	4r	.	.	4r	.	.	4r	4r	.	4r	.	4r	.	4r	.	4r	.	4r	.
.	.	.	.	.	.	.	.	.	8g/J	.	.	.	.	.	.	.	.	.	.	.	.	.	.	.	.	.	.	.	.	.	.	.	.	.	.
!	!	!	!	!	!	!	!	!	!	!	!	!	!	!	!	!	!	!	!	!LO:LB:g=original	!	!	!	!	!	!	!	!	!	!	!	!	!	!	!
=9	=9	=9	=9	=9	=9	=9	=9	=9	=9	=9	=9	=9	=9	=9	=9	=9	=9	=9	=9	=9	=9	=9	=9	=9	=9	=9	=9	=9	=9	=9	=9	=9	=9	=9	=9
*tremolo	*	*	*	*	*	*	*tremolo	*	*	*	*	*	*	*	*	*	*	*	*	*	*	*	*	*	*	*	*	*	*	*	*	*	*	*	*
!	!	!LO:DY:a:rj	!	!LO:DY:a	!	!LO:DY:a	!	!LO:DY:a	!	!	!	!	!	!	!	!LO:DY:a	!	!	!	!	!	!	!	!	!	!	!	!	!	!	!	!	!LO:DY:a	!	!LO:DY:a
8C/L	6	pp	8C/L	pp	8G/L	p	8B-X/L	p	(8e/L	.	4r	.	.	4r	.	p	4r	.	.	4r	.	.	0.r	0.r	.	0.r	.	0.r	.	0.r	.	2.b-X\	pp	2.ee\	pp
8C/	7 3	.	8C/	.	8G/J	.	8B-/	.	8f/J)	.	.	.	.	.	.	.	.	.	.	.	.	.	.	.	.	.	.	.	.	.	.	.	.	.	.
!	!	!	!	!	!	!	!	!	!	!	!LO:LB:g=original	!	!	!	!	!	!	!	!	!	!	!	!	!	!	!	!	!	!	!	!	!	!	!	!
=-	=-	=-	=-	=-	=-	=-	=-	=-	=-	=-	=-	=-	=-	=-	=-	=-	=-	=-	=-	=-	=-	=-	=-	=-	=-	=-	=-	=-	=-	=-	=-	=-	=-	=-	=-
*	*	*	*	*	*tremolo	*	*	*	*tremolo	*	*	*	*	*	*	*	*	*	*	*	*	*	*	*	*	*	*	*	*	*	*	*	*	*	*
!	!	!	!	!	!	!	!	!	!	!	!	!	!LO:DY:a	!	!	!	!	!	!LO:DY:a	!	!	!LO:DY:a	!	!	!	!	!	!	!	!	!	!	!	!	!
8C/	.	.	8C/	.	8G/L	.	8B-/	.	8e/L	.	4C/	San-	p	4B-X\	San-	.	4c\	San-	p	4e/	San-	p	.	.	.	.	.	.	.	.	.	.	.	.	.
8C/	.	.	8C/	.	8G/	.	8B-/	.	8e/	.	.	.	.	.	.	.	.	.	.	.	.	.	.	.	.	.	.	.	.	.	.	.	.	.	.
8C/	.	.	8C/	.	8G/	.	8B-/	.	8e/	.	4C/	-ctus	.	4B-\	-ctus	.	4c\	-ctus	.	4e/	-ctus	.	.	.	.	.	.	.	.	.	.	.	.	.	.
8C/J	.	.	8C/J	.	8G/J	.	8B-/J	.	8e/J	.	.	.	.	.	.	.	.	.	.	.	.	.	.	.	.	.	.	.	.	.	.	.	.	.	.
=10	=10	=10	=10	=10	=10	=10	=10	=10	=10	=10	=10	=10	=10	=10	=10	=10	=10	=10	=10	=10	=10	=10	=10	=10	=10	=10	=10	=10	=10	=10	=10	=10	=10	=10	=10
8C#X/L	6 5	.	8C#X/L	.	8G/L	.	8A/L	.	8e/L	.	4.C#X/	D(o-	.	4.A\	Do-	.	4.c#X\	Do-	.	4.e/	Do-	.	.	.	.	.	.	.	.	.	.	2.a\	.	2.ee\	.
8C#/	.	.	8C#/	.	8G/	.	8A/	.	8f/J	.	.	.	.	.	.	.	.	.	.	.	.	.	.	.	.	.	.	.	.	.	.	.	.	.	.
8C#/	.	.	8C#/	.	8G/	.	8A/	.	8e/L	.	.	.	.	.	.	.	.	.	.	.	.	.	.	.	.	.	.	.	.	.	.	.	.	.	.
8C#/	.	.	8C#/	.	8G/	.	8A/	.	8e/	.	8C#/	-mi)-	.	8A\	-mi-	.	8c#\	-mi-	.	8e/	-mi-	.	.	.	.	.	.	.	.	.	.	.	.	.	.
!	!	!	!	!	!	!	!	!	!	!	!	!	!	!LO:LB:g=original	!	!	!	!	!	!	!	!	!	!	!	!	!	!	!	!	!	!	!	!	!
=-	=-	=-	=-	=-	=-	=-	=-	=-	=-	=-	=-	=-	=-	=-	=-	=-	=-	=-	=-	=-	=-	=-	=-	=-	=-	=-	=-	=-	=-	=-	=-	=-	=-	=-	=-
8C#/	.	.	8C#/	.	8G/	.	8A/	.	8e/	.	4C#/	-nus	.	4A\	-nus	.	4c#\	-nus	.	4e/	-nus	.	.	.	.	.	.	.	.	.	.	.	.	.	.
8C#/J	.	.	8C#/J	.	8G/J	.	8A/J	.	8e/J	.	.	.	.	.	.	.	.	.	.	.	.	.	.	.	.	.	.	.	.	.	.	.	.	.	.
!	!	!	!	!	!	!	!	!	!LO:LB:g=original	!	!	!	!	!	!	!	!LO:LB:g=original	!	!	!	!	!	!	!	!	!	!	!	!	!	!	!	!	!	!
=11	=11	=11	=11	=11	=11	=11	=11	=11	=11	=11	=11	=11	=11	=11	=11	=11	=11	=11	=11	=11	=11	=11	=11	=11	=11	=11	=11	=11	=11	=11	=11	=11	=11	=11	=11
8D\L	5	.	8D\L	.	8A/L	.	8A/L	.	8f/L	.	2D\	De-	.	2A\	De-	.	2d\	De-	.	2f/	De-	.	.	.	.	.	.	.	.	.	.	2.a\	.	2.ff\	.
8D\	.	.	8D\	.	8A/	.	8A/	.	8g/J	.	.	.	.	.	.	.	.	.	.	.	.	.	.	.	.	.	.	.	.	.	.	.	.	.	.
8D\	.	.	8D\	.	8A/	.	8A/	.	8f/L	.	.	.	.	.	.	.	.	.	.	.	.	.	.	.	.	.	.	.	.	.	.	.	.	.	.
8D\	.	.	8D\	.	8A/	.	8A/	.	8f/	.	.	.	.	.	.	.	.	.	.	.	.	.	.	.	.	.	.	.	.	.	.	.	.	.	.
8D\	.	.	8D\	.	8A/	.	8A/	.	8f/	.	4D\	-us	.	4A\	-us	.	4d\	-us	.	4f/	-us	.	.	.	.	.	.	.	.	.	.	.	.	.	.
8D\J	.	.	8D\J	.	8A/J	.	8A/J	.	8f/J	.	.	.	.	.	.	.	.	.	.	.	.	.	.	.	.	.	.	.	.	.	.	.	.	.	.
!LO:LB:g=original	!	!	!LO:LB:g=original	!	!	!	!	!	!	!	!	!	!	!	!	!	!	!	!	!	!	!	!	!	!	!	!	!	!	!	!	!	!	!	!
=12	=12	=12	=12	=12	=12	=12	=12	=12	=12	=12	=12	=12	=12	=12	=12	=12	=12	=12	=12	=12	=12	=12	=12	=12	=12	=12	=12	=12	=12	=12	=12	=12	=12	=12	=12
*	*	*	*	*	*	*	*	*	*	*	*	*ij	*	*	*	*	*	*	*	*	*ij	*	*	*	*	*	*	*	*	*	*	*	*	*	*
8D\L	7 #	.	8D\L	.	8A/L	.	8c/L	.	8f#X/L	.	4.D\	D(o-	.	4.A\	Do-	.	4.cn\	Do-	.	4.f#X/	Do-	.	.	.	.	.	.	.	.	.	.	2.cc\	.	2.ff#X\	.
8D\	.	.	8D\	.	8A/	.	8c/	.	8g/J	.	.	.	.	.	.	.	.	.	.	.	.	.	.	.	.	.	.	.	.	.	.	.	.	.	.
8D\	.	.	8D\	.	8A/	.	8c/	.	8f#/L	.	.	.	.	.	.	.	.	.	.	.	.	.	.	.	.	.	.	.	.	.	.	.	.	.	.
8D\	.	.	8D\	.	8A/	.	8c/	.	8f#/	.	8D\	-mi)-	.	8A\	-mi-	.	8c\	-mi-	.	8f#/	-mi-	.	.	.	.	.	.	.	.	.	.	.	.	.	.
8D\	.	.	8D\	.	8A/	.	8c/	.	8f#/	.	4D\	-nus	.	4A\	-nus	.	4c\	-nus	.	4f#/	-nus	.	.	.	.	.	.	.	.	.	.	.	.	.	.
8D\J	.	.	8D\J	.	8A/J	.	8c/J	.	8f#/J	.	.	.	.	.	.	.	.	.	.	.	.	.	.	.	.	.	.	.	.	.	.	.	.	.	.
!	!	!	!	!	!	!	!LO:LB:g=original	!	!	!	!	!	!	!	!	!	!	!	!	!	!	!	!	!	!	!	!	!	!	!	!	!LO:LB:g=original	!	!	!
=13	=13	=13	=13	=13	=13	=13	=13	=13	=13	=13	=13	=13	=13	=13	=13	=13	=13	=13	=13	=13	=13	=13	=13	=13	=13	=13	=13	=13	=13	=13	=13	=13	=13	=13	=13
!	!	!	!	!	!LO:TX:a:t=P:problem=mixed beam	!	!	!	!	!	!	!	!	!	!	!	!	!	!	!	!	!	!	!	!	!	!	!	!	!	!	!	!	!	!
8D\L	6 4	.	8D\L	.	8G/L	.	8B/L	.	8g/L	.	2D\	De-	.	2Bn\	De-	.	2B/	De-	.	2g\	De-	.	1.r	1.r	.	1.r	.	1.r	.	1.r	.	2.b\	.	2.gg\	.
8D\	.	.	8D\	.	8d\J	.	8B/	.	8a/J	.	.	.	.	.	.	.	.	.	.	.	.	.	.	.	.	.	.	.	.	.	.	.	.	.	.
8D\	.	.	8D\	.	8d\L	.	8B/	.	8g/L	.	.	.	.	.	.	.	.	.	.	.	.	.	.	.	.	.	.	.	.	.	.	.	.	.	.
8D\	.	.	8D\	.	8d\	.	8B/	.	8g/	.	.	.	.	.	.	.	.	.	.	.	.	.	.	.	.	.	.	.	.	.	.	.	.	.	.
8D\	.	.	8D\	.	8d\	.	8B/	.	8g/	.	4D\	-us	.	4B\	-us	.	4d\	-us	.	4g\	-us	.	.	.	.	.	.	.	.	.	.	.	.	.	.
*	*	*	*	*	*	*	*	*	*	*	*	*Xij	*	*	*	*	*	*	*	*	*Xij	*	*	*	*	*	*	*	*	*	*	*	*	*	*
8D\J	.	.	8D\J	.	8d\J	.	8B/J	.	8g/J	.	.	.	.	.	.	.	.	.	.	.	.	.	.	.	.	.	.	.	.	.	.	.	.	.	.
=14	=14	=14	=14	=14	=14	=14	=14	=14	=14	=14	=14	=14	=14	=14	=14	=14	=14	=14	=14	=14	=14	=14	=14	=14	=14	=14	=14	=14	=14	=14	=14	=14	=14	=14	=14
8D\L	7 #	.	8D\L	.	8A/L	.	8f#X/L	.	8cc\L	.	2D\	Sa-	.	2A\	Sa-	.	2f#X\	Sa-	.	2cc\	Sa-	.	.	.	.	.	.	.	.	.	.	4r	.	4r	.
8D\	.	.	8D\	.	8A/	.	8f#/	.	8dd\J	.	.	.	.	.	.	.	.	.	.	.	.	.	.	.	.	.	.	.	.	.	.	.	.	.	.
8D\	.	.	8D\	.	8A/	.	8f#/	.	8cc\L	.	.	.	.	.	.	.	.	.	.	.	.	.	.	.	.	.	.	.	.	.	.	4aa\	.	4ccc\	.
8D\	.	.	8D\	.	8A/	.	8f#/	.	8cc\	.	.	.	.	.	.	.	.	.	.	.	.	.	.	.	.	.	.	.	.	.	.	.	.	.	.
8D\	.	.	8D\	.	8A/	.	8f#/	.	8cc\	.	4D\	-ba-	.	4A\	-ba-	.	4f#\	-ba-	.	4cc\	-ba-	.	.	.	.	.	.	.	.	.	.	4aa\	.	4ccc\	.
8D\J	.	.	8D\J	.	8A/J	.	8f#/J	.	8cc\J	.	.	.	.	.	.	.	.	.	.	.	.	.	.	.	.	.	.	.	.	.	.	.	.	.	.
*Xtremolo	*	*	*Xtremolo	*	*Xtremolo	*	*Xtremolo	*	*Xtremolo	*	*	*	*	*	*	*	*	*	*	*	*	*	*	*	*	*	*	*	*	*	*	*	*	*	*
!	!	!	!	!	!LO:LB:g=original	!	!	!	!	!	!	!	!	!	!	!	!	!	!	!	!	!	!	!	!	!	!	!	!	!	!	!	!	!LO:LB:g=original	!
=15	=15	=15	=15	=15	=15	=15	=15	=15	=15	=15	=15	=15	=15	=15	=15	=15	=15	=15	=15	=15	=15	=15	=15	=15	=15	=15	=15	=15	=15	=15	=15	=15	=15	=15	=15
!LO:TX:a:t=P:problem=mixed beam	!	!	!	!	!	!	!	!	!	!	!	!	!	!	!	!	!	!	!	!	!	!	!	!	!	!	!	!	!	!	!	!	!	!	!
!LO:TX:a:t=Tutti	!	!	!LO:TX:a:t=P:problem=mixed beam	!LO:DY:a	!	!LO:DY:a	!	!LO:DY:a:t=ff.	!	!LO:DY:a	!	!	!	!	!	!	!	!	!	!	!	!LO:DY:a	!	!	!	!	!	!	!	!	!	!	!	!	!LO:DY:a
8G\L	.	.	8G\L	ff	8G/	ff	8g/	ff	8b\	ff	4G\	-oth	.	4G/	-oth	.	4g\	-oth	.	4b\	-oth	ff	4Re/	2.G/	.	2.g/	.	2g/	.	2dd\	.	4gg\	.	4bb\	f
!	!	!LO:DY:a	!	!	!	!	!	!	!	!	!	!	!	!	!	!	!	!	!	!	!	!	!	!	!	!	!	!	!	!	!	!	!	!	!
8GG/	.	ff	8GG/	.	4g\	.	4d/	.	4b\	.	.	.	.	.	.	.	.	.	.	.	.	.	.	.	.	.	.	.	.	.	.	.	.	.	.
!	!	!	!	!	!	!	!	!	!	!	!	!	!LO:DY:a	!	!	!LO:DY:a	!	!	!LO:DY:a	!	!	!	!	!	!	!	!	!	!	!	!	!	!	!	!
8BB/	.	.	8BB/	.	.	.	.	.	.	.	4G\	San-	ff	4d\	S(an)-	ff	4g\	San-	ff	4b\	San-	.	4Re/	.	.	.	.	.	.	.	.	4b\	.	4dd\	.
8D/J	.	.	8D/J	.	4g\	.	4d/	.	4b\	.	.	.	.	.	.	.	.	.	.	.	.	.	.	.	.	.	.	.	.	.	.	.	.	.	.
8G\L	.	.	8G\L	.	.	.	.	.	.	.	4G\	-ctus	.	4d\	-ctus	.	4g\	-ctus	.	4b\	-ctus	.	4Re/	.	.	.	.	4g/	.	4dd\	.	4b\	.	4dd\	.
8D\J	.	.	8D\J	.	8g\	.	8d/	.	8b\	.	.	.	.	.	.	.	.	.	.	.	.	.	.	.	.	.	.	.	.	.	.	.	.	.	.
=16	=16	=16	=16	=16	=16	=16	=16	=16	=16	=16	=16	=16	=16	=16	=16	=16	=16	=16	=16	=16	=16	=16	=16	=16	=16	=16	=16	=16	=16	=16	=16	=16	=16	=16	=16
8B\L	6_	.	8B\L	.	8g\	.	8d/	.	8b\	.	4.G\	Do-	.	4.d\	D(o-	.	4.g\	Do-	.	4.b\	Do-	.	4Re/	2.G/	.	2.g/	.	2.g/	.	2.dd\	.	2.b\	.	2.dd\	.
8G\	.	.	8G\	.	4g\	.	4d/	.	4b\	.	.	.	.	.	.	.	.	.	.	.	.	.	.	.	.	.	.	.	.	.	.	.	.	.	.
8D\	.	.	8D\	.	.	.	.	.	.	.	.	.	.	.	.	.	.	.	.	.	.	.	4Re/	.	.	.	.	.	.	.	.	.	.	.	.
8G\	x	.	8G\	.	4g\	.	4d/	.	4b\	.	8G\	-mi-	.	8d\	-mi)-	.	8g\	-mi-	.	8b\	-mi-	.	.	.	.	.	.	.	.	.	.	.	.	.	.
8BB\	.	.	8BB\	.	.	.	.	.	.	.	4G\	-nus	.	4d\	-nus	.	4g\	-nus	.	4b\	-nus	.	4Re/	.	.	.	.	.	.	.	.	.	.	.	.
8D\J	.	.	8D\J	.	8g\	.	8d/	.	8b\	.	.	.	.	.	.	.	.	.	.	.	.	.	.	.	.	.	.	.	.	.	.	.	.	.	.
=17	=17	=17	=17	=17	=17	=17	=17	=17	=17	=17	=17	=17	=17	=17	=17	=17	=17	=17	=17	=17	=17	=17	=17	=17	=17	=17	=17	=17	=17	=17	=17	=17	=17	=17	=17
8GG/L	6 4	.	8GG\L	.	8g\	.	8e/	.	8cc\	.	2G\	De-	.	2e\	De-	.	2g\	De-	.	2cc\	De-	.	4Re/	2.e/	.	2.cc\	.	2cc\	.	2ee\	.	2.cc\	.	2.ee\	.
*	*	*	*	*	*	*	*	*	*	*	*	*	*	*	*	*	*	*	*	*custos:ee	*	*	*	*	*	*	*	*	*	*	*	*	*	*	*
8C/	_	.	8C\	.	4g\	.	4e/	.	4cc\	.	.	.	.	.	.	.	.	.	.	.	.	.	.	.	.	.	.	.	.	.	.	.	.	.	.
8E/	.	.	8E\	.	.	.	.	.	.	.	.	.	.	.	.	.	.	.	.	.	.	.	4Re/	.	.	.	.	.	.	.	.	.	.	.	.
8G/J	.	.	8G\	.	4g\	.	4e/	.	4cc\	.	.	.	.	.	.	.	.	.	.	.	.	.	.	.	.	.	.	.	.	.	.	.	.	.	.
!	!	!	!	!	!	!	!	!	!	!	!	!	!	!	!	!	!	!	!	!LO:LB:g=original	!	!	!	!	!	!	!	!	!	!	!	!	!	!	!
=-	=-	=-	=-	=-	=-	=-	=-	=-	=-	=-	=-	=-	=-	=-	=-	=-	=-	=-	=-	=-	=-	=-	=-	=-	=-	=-	=-	=-	=-	=-	=-	=-	=-	=-	=-
8c\L	x	.	8c\	.	.	.	.	.	.	.	4G\	-us	.	4e\	-us	.	4g\	-us	.	4cc\	-us	.	4Re/	.	.	.	.	4cc\	.	4ee\	.	.	.	.	.
*	*	*	*	*	*	*	*	*	*	*	*	*	*	*	*	*	*	*	*	*	*	*	*	*	*	*	*	*	*	*custos:ee	*	*	*	*	*
8G\J	.	.	8G\J	.	8g\	.	8e/	.	8cc\	.	.	.	.	.	.	.	.	.	.	.	.	.	.	.	.	.	.	.	.	.	.	.	.	.	.
!	!	!	!	!	!	!	!	!	!	!	!	!	!	!	!	!	!	!	!	!	!	!	!	!	!	!	!	!	!	!LO:LB:g=original	!	!	!	!	!
=18	=18	=18	=18	=18	=18	=18	=18	=18	=18	=18	=18	=18	=18	=18	=18	=18	=18	=18	=18	=18	=18	=18	=18	=18	=18	=18	=18	=18	=18	=18	=18	=18	=18	=18	=18
8e\L	_	.	8e\L	.	8g\	.	8e/	.	8cc\	.	2G\	Sa-	.	2e\	Sa-	.	2g\	Sa-	.	2cc\	Sa-	.	4Re/	2.e/	.	2.cc\	.	2.cc\	.	2.ee\	.	2.cc\	.	2.ee\	.
*	*	*	*	*	*	*	*	*	*	*	*	*	*	*	*	*	*	*	*	*	*	*	*	*	*	*	*	*custos:dd	*	*	*	*	*	*	*
8c\	.	.	8c\	.	4g\	.	4e/	.	4cc\	.	.	.	.	.	.	.	.	.	.	.	.	.	.	.	.	.	.	.	.	.	.	.	.	.	.
8G\	.	.	8G\	.	.	.	.	.	.	.	.	.	.	.	.	.	.	.	.	.	.	.	4Re/	.	.	.	.	.	.	.	.	.	.	.	.
8E\	x	.	8E\	.	4g\	.	4e/	.	4cc\	.	.	.	.	.	.	.	.	.	.	.	.	.	.	.	.	.	.	.	.	.	.	.	.	.	.
8C\	.	.	8C\	.	.	.	.	.	.	.	4G\	-ba-	.	4e\	-ba-	.	4g\	-ba-	.	4cc\	-ba-	.	4Re/	.	.	.	.	.	.	.	.	.	.	.	.
8E\J	.	.	8E\J	.	8g\	.	8e/	.	8cc\	.	.	.	.	.	.	.	.	.	.	.	.	.	.	.	.	.	.	.	.	.	.	.	.	.	.
!	!	!	!	!	!	!	!	!	!	!	!LO:LB:g=original	!	!	!	!	!	!	!	!	!	!	!	!	!	!	!	!	!LO:LB:g=original	!	!	!	!	!	!	!
=19	=19	=19	=19	=19	=19	=19	=19	=19	=19	=19	=19	=19	=19	=19	=19	=19	=19	=19	=19	=19	=19	=19	=19	=19	=19	=19	=19	=19	=19	=19	=19	=19	=19	=19	=19
8GG/L	5 2	.	8GG\L	.	8g\	.	8b\	.	8dd\	.	4G\	-oth	.	4B\	-oth	.	4g\	-oth	.	4dd\	-oth	.	4Re/	2.g/	.	2.dd\	.	2.dd\	.	2.ff\	.	2.dd\	.	2.ff\	.
8BB/	.	.	8BB\	.	4g\	.	4b\	.	4dd\	.	.	.	.	.	.	.	.	.	.	.	.	.	.	.	.	.	.	.	.	.	.	.	.	.	.
*	*	*	*	*	*	*	*	*	*	*	*	*ij	*	*	*	*	*	*	*	*	*	*	*	*	*	*	*	*	*	*	*	*	*	*	*
8D/	.	.	8D\	.	.	.	.	.	.	.	4G\	Do-	.	4B\	D(o-	.	4g\	Do-	.	4dd\	Do-	.	4Re/	.	.	.	.	.	.	.	.	.	.	.	.
8G/J	_	.	8G\	.	4g\	.	4b\	.	4dd\	.	.	.	.	.	.	.	.	.	.	.	.	.	.	.	.	.	.	.	.	.	.	.	.	.	.
8B\L	.	.	8B\	.	.	.	.	.	.	.	8G\	-mi-	.	8B\	-mi)-	.	8g\	-mi-	.	8dd\	-mi-	.	4Re/	.	.	.	.	.	.	.	.	.	.	.	.
8d\J	x	.	8d\J	.	8g\	.	8b\	.	8dd\	.	8G\	-nus	.	8B\	-nus	.	8g\	-nus	.	8dd\	-nus	.	.	.	.	.	.	.	.	.	.	.	.	.	.
!	!	!	!	!	!	!	!	!	!	!	!	!	!	!	!	!	!	!	!	!	!	!	!	!LO:LB:g=original	!	!LO:LB:g=original	!	!	!	!	!	!	!	!	!
=20	=20	=20	=20	=20	=20	=20	=20	=20	=20	=20	=20	=20	=20	=20	=20	=20	=20	=20	=20	=20	=20	=20	=20	=20	=20	=20	=20	=20	=20	=20	=20	=20	=20	=20	=20
*	*	*	*	*	*	*	*	*	*	*	*	*	*	*	*	*	*	*	*	*	*	*	*	*2\right	*	*	*	*	*	*	*	*	*	*	*
8GG/L	6 4	.	8GG\L	.	8g\	.	8cc\	.	8ee\	.	2G\	De-	.	2c\	De-	.	2g\	De-	.	2ee\	De-	.	4Ra/	2.cc\	.	2.ee\	.	2.cc\	.	2.ee\	.	2.cc\	.	2.ee\	.
8C/J	.	.	8C\	.	4g\	.	4cc\	.	4ee\	.	.	.	.	.	.	.	.	.	.	.	.	.	.	.	.	.	.	.	.	.	.	.	.	.	.
8E\L	_	.	8E\	.	.	.	.	.	.	.	.	.	.	.	.	.	.	.	.	.	.	.	4Ra/	.	.	.	.	.	.	.	.	.	.	.	.
8G\	.	.	8G\	.	4g\	.	4cc\	.	4ee\	.	.	.	.	.	.	.	.	.	.	.	.	.	.	.	.	.	.	.	.	.	.	.	.	.	.
!	!	!	!	!	!	!	!	!	!	!	!	!	!	!	!	!	!	!	!	!	!	!	!LO:LB:g=original	!	!	!	!	!	!	!	!	!	!	!	!
=-	=-	=-	=-	=-	=-	=-	=-	=-	=-	=-	=-	=-	=-	=-	=-	=-	=-	=-	=-	=-	=-	=-	=-	=-	=-	=-	=-	=-	=-	=-	=-	=-	=-	=-	=-
8c\	x	.	8c\	.	.	.	.	.	.	.	4G\	-us	.	4c\	-us	.	4g\	-us	.	4ee\	-us	.	4Ra/	.	.	.	.	.	.	.	.	.	.	.	.
8e\J	.	.	8e\J	.	8g\	.	8cc\	.	8ee\	.	.	.	.	.	.	.	.	.	.	.	.	.	.	.	.	.	.	.	.	.	.	.	.	.	.
*	*	*	*custos:d	*	*	*	*	*	*custos:ff	*	*	*	*	*	*	*	*	*	*	*	*	*	*	*	*	*	*	*	*	*	*	*	*	*	*
!	!	!	!LO:PB:g=original	!	!	!	!	!	!LO:LB:g=original	!	!	!	!	!LO:LB:g=original	!	!	!LO:LB:g=original	!	!	!	!	!	!	!	!	!	!	!	!	!	!	!	!	!	!
=21	=21	=21	=21	=21	=21	=21	=21	=21	=21	=21	=21	=21	=21	=21	=21	=21	=21	=21	=21	=21	=21	=21	=21	=21	=21	=21	=21	=21	=21	=21	=21	=21	=21	=21	=21
8A\L	6\	.	8d\L	.	8d\	.	8cc\	.	8ff#X\	.	2A\	Sa-	.	2d\	Sa-	.	2f#X\	Sa-	.	2cc\	Sa-	.	2.r	4dd\	.	4dd\	.	4dd\	.	4dd\	.	4cc\	.	4ff#X\	.
8D\	.	.	8D\	.	4d\	.	4cc\	.	4ff#\	.	.	.	.	.	.	.	.	.	.	.	.	.	.	.	.	.	.	.	.	.	.	.	.	.	.
8F#X\	_	.	8F#X\	.	.	.	.	.	.	.	.	.	.	.	.	.	.	.	.	.	.	.	.	4dd\	.	4dd\	.	4dd\	.	4dd\	.	4cc\	.	4ff#\	.
8A\	.	.	8A\	.	4d\	.	4cc\	.	4ff#\	.	.	.	.	.	.	.	.	.	.	.	.	.	.	.	.	.	.	.	.	.	.	.	.	.	.
8d\	.	.	8d\	.	.	.	.	.	.	.	4A\	-ba-	.	4d\	-ba-	.	4f#\	-ba-	.	4cc\	-ba-	.	.	4dd\	.	4dd\	.	4dd\	.	4dd\	.	4cc\	.	4ff#\	.
8D\J	x	.	8D\J	.	8d\	.	8cc\	.	8ff#\	.	.	.	.	.	.	.	.	.	.	.	.	.	.	.	.	.	.	.	.	.	.	.	.	.	.
!LO:LB:g=original	!	!	!	!	!	!	!	!	!	!	!	!	!	!	!	!	!	!	!	!	!	!	!	!	!	!	!	!	!	!	!	!	!	!	!
=22	=22	=22	=22	=22	=22	=22	=22	=22	=22	=22	=22	=22	=22	=22	=22	=22	=22	=22	=22	=22	=22	=22	=22	=22	=22	=22	=22	=22	=22	=22	=22	=22	=22	=22	=22
4G\	.	.	4G\	.	4d\	.	4b\	.	8gg\L	.	4G\	-oth	.	4d\	-oth	.	4g\	-oth	.	4b\	-oth	.	4Re/	4g/	.	4dd\	.	4g/	.	4dd\	.	4b\	.	4gg\	.
*	*	*	*	*	*	*	*	*	*	*	*	*Xij	*	*	*	*	*	*	*	*	*	*	*	*	*	*	*	*	*	*	*	*	*	*	*
.	.	.	.	.	.	.	.	.	8gg\	.	.	.	.	.	.	.	.	.	.	.	.	.	.	.	.	.	.	.	.	.	.	.	.	.	.
4r	.	.	4r	.	4r	.	4r	.	8dd\	.	4r	.	.	4r	.	.	4r	.	.	4r	.	.	4r	4r	.	4r	.	4r	.	4r	.	4r	.	4r	.
.	.	.	.	.	.	.	.	.	8b\J	.	.	.	.	.	.	.	.	.	.	.	.	.	.	.	.	.	.	.	.	.	.	.	.	.	.
4r	.	.	4r	.	4r	.	4r	.	8g/L	.	4r	.	.	4r	.	.	4r	.	.	4r	.	.	4r	4r	.	4r	.	4r	.	4r	.	4r	.	4r	.
.	.	.	.	.	.	.	.	.	8d/J	.	.	.	.	.	.	.	.	.	.	.	.	.	.	.	.	.	.	.	.	.	.	.	.	.	.
=23	=23	=23	=23	=23	=23	=23	=23	=23	=23	=23	=23	=23	=23	=23	=23	=23	=23	=23	=23	=23	=23	=23	=23	=23	=23	=23	=23	=23	=23	=23	=23	=23	=23	=23	=23
!	!	!	!	!	!	!	!	!	!	!	!	!	!	!	!	!	!	!	!	!	!	!	!	!	!	!	!	!	!	!	!	!	!LO:DY:a	!	!
4GG/	.	.	4GG/	.	4G/	.	4G/	.	4G/	.	4r	.	.	4r	.	.	4r	.	.	4r	.	.	4Re/	4g/	.	4g/	.	4g/	.	4g/	.	4r	p	4r	.
!	!	!	!	!	!	!	!	!	!	!	!	!	!	!	!	!	!	!	!	!	!	!	!	!	!	!	!	!	!	!	!	!	!	!	!LO:DY:a
4r	.	.	4r	.	4r	.	4r	.	4r	.	4G\	Do-	.	4B\	D(o-	.	4g\	Do-	.	4dd\	Do-	.	4r	4r	.	4r	.	4r	.	4r	.	4b\	.	4dd\	pp
4r	.	.	4r	.	4r	.	4r	.	4r	.	8G\	-mi-	.	8B\	-mi)-	.	8g\	-mi-	.	8dd\	-mi-	.	4r	4r	.	4r	.	4r	.	4r	.	4b\	.	4dd\	.
.	.	.	.	.	.	.	.	.	.	.	8G\	-nus	.	8B\	-nus	.	8g\	-nus	.	8dd\	-nus	.	.	.	.	.	.	.	.	.	.	.	.	.	.
=24	=24	=24	=24	=24	=24	=24	=24	=24	=24	=24	=24	=24	=24	=24	=24	=24	=24	=24	=24	=24	=24	=24	=24	=24	=24	=24	=24	=24	=24	=24	=24	=24	=24	=24	=24
1.r	.	.	1.r	.	1.r	.	1.r	.	1.r	.	2G\	De-	.	2B\	De-	.	2g\	De-	.	2dd\	De-	.	0.r	0.r	.	0.r	.	1.r	.	1.r	.	2b\	.	2dd\	.
.	.	.	.	.	.	.	.	.	.	.	4G\	-us	.	4B\	-us	.	4g\	-us	.	4gg\	-us	.	.	.	.	.	.	.	.	.	.	4b\	.	4gg\	.
=25	=25	=25	=25	=25	=25	=25	=25	=25	=25	=25	=25	=25	=25	=25	=25	=25	=25	=25	=25	=25	=25	=25	=25	=25	=25	=25	=25	=25	=25	=25	=25	=25	=25	=25	=25
.	.	.	.	.	.	.	.	.	.	.	2c\	Sa-	.	2c\	Sa-	.	2g\	Sa-	.	2ee\	Sa-	.	.	.	.	.	.	.	.	.	.	2cc\	.	2ee\	.
.	.	.	.	.	.	.	.	.	.	.	4C/	-ba-	.	4c\	-ba-	.	4g\	-ba-	.	4ee\	-ba-	.	.	.	.	.	.	.	.	.	.	4cc\	.	4ee\	.
!	!	!	!	!	!LO:LB:g=original	!	!LO:PB:g=original	!	!	!	!	!	!	!	!	!	!	!	!	!LO:LB:g=original	!	!	!	!	!	!	!	!	!	!	!	!LO:LB:g=original	!	!	!
=26	=26	=26	=26	=26	=26	=26	=26	=26	=26	=26	=26	=26	=26	=26	=26	=26	=26	=26	=26	=26	=26	=26	=26	=26	=26	=26	=26	=26	=26	=26	=26	=26	=26	=26	=26
!LO:TX:a:t=pedale	!	!	!	!	!	!LO:DY:a	!	!	!	!	!	!	!	!	!	!	!	!	!	!	!	!	!	!	!	!	!	!	!	!	!	!	!	!	!
8GG/	.	.	8GG/	.	8G/	p	8r	.	8r	.	4G\	-oth	.	4B\	-oth	.	4g\	-oth	.	4dd\	-oth	.	.	.	.	.	.	4r	.	4r	.	4b\	.	8dd\L	.
!	!	!	!	!	!	!	!	!LO:DY:a	!	!LO:DY:a	!	!	!	!	!	!	!	!	!	!	!	!	!	!	!	!	!	!	!	!	!	!	!	!	!
8r	.	.	8r	.	8r	.	8B/L	pp	8d/L	pp	.	.	.	.	.	.	.	.	.	.	.	.	.	.	.	.	.	.	.	.	.	.	.	8dd\|	.
!	!	!	!	!	!	!	!	!	!	!	!	!	!	!	!	!	!	!	!	!	!	!	!	!	!	!	!	!	!LO:DY:a	!	!LO:DY:a	!	!LO:DY:a	!	!
8GG/	.	.	8GG/	.	8G/	.	8B/	.	8d/	.	4r	.	.	4r	.	.	4r	.	.	4r	.	.	.	.	.	.	.	4G/	pp	4g/	pp	4b\	pp	8dd\|	.
8r	.	.	8r	.	8r	.	8B/	.	8d/	.	.	.	.	.	.	.	.	.	.	.	.	.	.	.	.	.	.	.	.	.	.	.	.	8dd\|	.
!	!	!LO:DY:a	!	!	!	!	!	!	!	!	!	!	!	!	!	!	!	!	!	!	!	!	!	!	!	!	!	!	!	!	!	!	!	!	!
8GG/	.	p	8GG/	.	8G/	.	8B/	.	8g/	.	4r	.	.	4r	.	.	4r	.	.	4r	.	.	.	.	.	.	.	4G/	.	4g/	.	8b\L	.	(8gg\	.
8r	.	.	8r	.	8r	.	8c/J	.	8f/J	.	.	.	.	.	.	.	.	.	.	.	.	.	.	.	.	.	.	.	.	.	.	8dd\J	.	8ff\J)	.
=27	=27	=27	=27	=27	=27	=27	=27	=27	=27	=27	=27	=27	=27	=27	=27	=27	=27	=27	=27	=27	=27	=27	=27	=27	=27	=27	=27	=27	=27	=27	=27	=27	=27	=27	=27
8GG/	.	.	8GG/	.	8G/	.	8B/L	.	8d#X/L	.	1.r	.	.	1.r	.	.	1.r	.	.	1.r	.	.	.	.	.	.	.	4G/	.	4g/	.	8b\L	.	8dd#X\L	.
8r	.	.	8r	.	8r	.	8c/	.	8e/J	.	.	.	.	.	.	.	.	.	.	.	.	.	.	.	.	.	.	.	.	.	.	8cc\J	.	8ee\J	.
8GG/	.	.	8GG/	.	8G/	.	8G/	.	4.e/	.	.	.	.	.	.	.	.	.	.	.	.	.	.	.	.	.	.	4G/	.	4g/	.	4.cc\	.	4.ee\	.
8r	.	.	8r	.	8r	.	8c/	.	.	.	.	.	.	.	.	.	.	.	.	.	.	.	.	.	.	.	.	.	.	.	.	.	.	.	.
8GG/	.	.	8GG/	.	8G/	.	8c/	.	.	.	.	.	.	.	.	.	.	.	.	.	.	.	.	.	.	.	.	4G/	.	4g/	.	.	.	.	.
8r	.	.	8r	.	8r	.	8e/J	.	8cc\	.	.	.	.	.	.	.	.	.	.	.	.	.	.	.	.	.	.	.	.	.	.	8ee\	.	8ccc\	.
=28	=28	=28	=28	=28	=28	=28	=28	=28	=28	=28	=28	=28	=28	=28	=28	=28	=28	=28	=28	=28	=28	=28	=28	=28	=28	=28	=28	=28	=28	=28	=28	=28	=28	=28	=28
8GG/	.	.	8GG/	.	8G/	.	8c/L	.	4e/	.	.	.	.	.	.	.	.	.	.	.	.	.	1.r	2.r	.	2.r	.	4G/	.	4g/	.	4cc\	.	4ee\	.
8r	.	.	8r	.	8r	.	8e/	.	.	.	.	.	.	.	.	.	.	.	.	.	.	.	.	.	.	.	.	.	.	.	.	.	.	.	.
8GG/	.	.	8GG/	.	8G/	.	8c/	.	4e/	.	.	.	.	.	.	.	.	.	.	.	.	.	.	.	.	.	.	4G/	.	4g/	.	4cc\	.	4ee\	.
8r	.	.	8r	.	8r	.	8e/	.	.	.	.	.	.	.	.	.	.	.	.	.	.	.	.	.	.	.	.	.	.	.	.	.	.	.	.
.	.	.	.	.	.	.	.	.	8qg/	.	.	.	.	.	.	.	.	.	.	.	.	.	.	.	.	.	.	.	.	.	.	.	.	8qgg/	.
8GG/	.	.	8GG/	.	8A/	.	8c/	.	8f#X/L	.	.	.	.	.	.	.	.	.	.	.	.	.	.	.	.	.	.	4G/	.	4g/	.	4cc\	.	8ff#X\L	.
8r	.	.	8r	.	8r	.	8d/J	.	16e/L	.	.	.	.	.	.	.	.	.	.	.	.	.	.	.	.	.	.	.	.	.	.	.	.	16ee\L	.
.	.	.	.	.	.	.	.	.	16f#/JJ	.	.	.	.	.	.	.	.	.	.	.	.	.	.	.	.	.	.	.	.	.	.	.	.	16ff#\JJ	.
=29	=29	=29	=29	=29	=29	=29	=29	=29	=29	=29	=29	=29	=29	=29	=29	=29	=29	=29	=29	=29	=29	=29	=29	=29	=29	=29	=29	=29	=29	=29	=29	=29	=29	=29	=29
!LO:TX:b:t=Org.	!	!	!	!	!	!	!	!	!	!	!	!	!	!	!	!	!	!	!	!	!	!	!	!	!	!	!	!	!	!	!	!	!	!	!
8GG/	5 2	.	8GG/	.	8G/L	.	8B/L	.	4g/	.	4r	.	.	4r	.	.	4r	.	.	4r	.	.	.	4r	.	4r	.	4G/	.	4g/	.	4b\	.	4gg\	.
8r	.	.	8r	.	8B/	.	8d/	.	.	.	.	.	.	.	.	.	.	.	.	.	.	.	.	.	.	.	.	.	.	.	.	.	.	.	.
!	!	!	!	!	!	!	!	!	!	!	!	!	!	!	!	!	!	!	!	!	!	!	!	!	!	!	!	!	!	!	!	!	!	!LO:LB:g=original	!
=-	=-	=-	=-	=-	=-	=-	=-	=-	=-	=-	=-	=-	=-	=-	=-	=-	=-	=-	=-	=-	=-	=-	=-	=-	=-	=-	=-	=-	=-	=-	=-	=-	=-	=-	=-
!	!	!	!	!	!	!	!	!	!	!	!	!	!LO:DY:a	!	!	!LO:DY:a	!	!	!LO:DY:a	!	!	!LO:DY:a	!	!	!LO:DY:a	!	!LO:DY:a	!	!	!	!	!	!	!	!
8BB/	_	.	8BB/	.	8G/	.	8B/	.	4g/	.	4GG/	Sa-	p	4B\	Sa-	p	4d\	Sa-	p	4g\	Sa-	p	.	4G/	p	4g/	pp	4g/	.	4dd\	.	4b\	.	4dd\	.
8r	.	.	8r	.	8B/	.	8d/	.	.	.	.	.	.	.	.	.	.	.	.	.	.	.	.	.	.	.	.	.	.	.	.	.	.	.	.
8D\	x	.	8D\	.	8G/	.	8B/	.	4g/	.	4GG/	-ba-	.	4B\	-ba-	.	4d\	-ba-	.	4g\	-ba-	.	.	4G/	.	4g/	.	4g/	.	4dd\	.	4b\	.	4dd\	.
8r	.	.	8r	.	8B/J	.	8d/J	.	.	.	.	.	.	.	.	.	.	.	.	.	.	.	.	.	.	.	.	.	.	.	.	.	.	.	.
=30	=30	=30	=30	=30	=30	=30	=30	=30	=30	=30	=30	=30	=30	=30	=30	=30	=30	=30	=30	=30	=30	=30	=30	=30	=30	=30	=30	=30	=30	=30	=30	=30	=30	=30	=30
2G\	.	.	2G\	.	2G/	.	2B/	.	2g/	.	2GG/	-oth	.	2B\	-oth	.	2d\	-oth	.	2g\	-oth	.	2.r	2G/	.	2g/	.	2g/	.	2dd\	.	2b\	.	2dd\	.
!LO:TX:a:t=30	!	!	!	!	!	!	!	!	!LO:TX:a:t=30	!	!	!	!	!	!	!	!	!	!	!	!	!	!	!	!	!	!	!	!	!	!	!	!	!	!
4r	.	.	4r	.	4r	.	4r	.	4r	.	4r	.	.	4r	.	.	4r	.	.	4r	.	.	.	4r	.	4r	.	4r	.	4r	.	4r	.	4r	.
==	==	==	==	==	==	==	==	==	==	==	==	==	==	==	==	==	==	==	==	==	==	==	==	==	==	==	==	==	==	==	==	==	==	==	==
*-	*-	*-	*-	*-	*-	*-	*-	*-	*-	*-	*-	*-	*-	*-	*-	*-	*-	*-	*-	*-	*-	*-	*-	*-	*-	*-	*-	*-	*-	*-	*-	*-	*-	*-	*-
!!!system-decoration: [(s1,s2)][(s3,s4,s5,s6)](s7)[(s8,s9,s10,s11)][(s12,s13,s14,s15)]s16
!!!RDF**dynam: p = "p."
!!!RDF**dynam: pp = "pp."
!!!RDF**dynam: f = "for:"
!!!RDF**dynam: ff = "ffor:"
!!!ENC: Berenika Jozajtis
!!!END: 2023-12-10
!!!EED: Marta Chmielewska
!!!EEV: 2024-04-23
